X:16
T:WMNSWRKB2- My tocher's the Jewel
S:SMM #312
Q:1/4=120
L:1/8
M:6/8
K:Em
D|B, E EE2 D|(EG) A B e d|B/ B3/2 A G/A/B A|GD D D2 D|\
B,E E  E2 D|EG A B e d|B g e d B A|GE E E2||\
d|e f g d B G|A B d e2 g|d B A G B A|G D D D2 D|\
E G D E G D|E G A B e d|B g e dB A|GE E E2|]

